X:6
%%pagewidth 9in
%%vocalfont Baskerville10Pro 13
T:Christmas Carol
M:6/8
L:1/8
K:F
V:1 clef=treble
V:2 clef=bass
%%score 1 2
V:1 
"_f"G | [B,DG]2 B [DFA]2F |(A>G)(F/E/) D2 D & [^CE]3x3|[DG]2 [DB] [DA]2 [DF]|[^CE]3-[^CE]2 "_p"D|
w: Now-ell, nowell* now-ell,** nowell,* [Now-ell, now-ell, now-ell.]* This
w:*Bring us in good ale,** good ale, And bring us in good ale: ** 
V:2
z |[G,,,G,,]3 [D,,D,]3|[A,,,A,,]3[B,,,B,,]3|[B,,,B,,]2G,,,F,,,2D,,,|[A,,,A,,]3-[A,,,A,,]2B,,|
V:1
[B,DF]2 [B,DF] [B,DG]2 [CEG]|[CFA]2 A [CF]3|GBA G2[A,DF] & D3-D3|[CEG]6||"_f""^Carol."[B,DG]2G [DFA]2B|
w:is the sa-lu-ta-tion of the an-gel Ga-bri-el. Ti-dings true there
w:For our bless-ed La-dy's sake, bring* us in good ale. Bring us in no
V:2
B,,2A,, G,,2C,| F,,3 A,,3|B,,3-B,,2 D,|C,6||[G,,D,G,]3 [D,,D,]3|
V:1
[CGc]2 B [CFA]2 [CG]|[B,EB]2 [CFA] [DF]2 [DG]| [^CEA]3-[CEA]2 "_p"D|[B,DF]2 [B,DF] [B,DG]2 [CEG]|[CFA]2 A [CF]3|
w:be come new, sent from the Trin-i-ty,* By Ga-bri-el to Na-za-reth,
w:brown* bread, for that is made of bran,* Nor bring us in no white bread, For
V:2
[E,,C,E,]3 [F,,C,F,]2 [E,,E,]|[G,,G,]2 [F,,F,] [B,,B,]2 [B,,B,]|[A,,A,]3-[A,,A,]2 B,,|B,,2 A,, G,,2 C,|F,,3 A,,3|
V:1
GBA G2 [A,DF] & D3-D2x|[CEG]3-[CEG]2||"_f"[DFd]|[Fc]2 [B,EB] [CFA]2 [^CG]|[DF]2 E D2 D|[DF]2 [DG] [DF] [^CE]2|
w:ci-ty of Ga-li lee:* A clean maiden* and pure virgin* Through her hu-mi-li-
w:there--in is no gain.* But bring us in good ale, good ale, And bring us in good
V:2
B,,3-B,,2 D,|C,3-C,2||[B,,B,]|[A,,A,]2 [G,,G,] [F,,F,]2 [E,,E,G,]|[D,,D,A,]2 [=C,,=C,A,] [B,,,B,,F,B,]3|[A,,,A,,A,]2 [G,,,G,,B,] [A,,,A,,A,] [A,,,A,,G,]2|
V:1
D3-D2 !p!D|[B,DF]2 [B,DF] [B,DG]2 [CEG]|[CF(A]2 A) [CF]3|GBA G2 [A,DF] & D3-D2x|[CEG]3-[CEG]2||
w:\-ty.* Hath con-cei-ved the per--son second* in De i-ty.*
w:ale.** For our bles-sed La-dy's sake, Bring* us in good ale.*
V:2
[D,,D,F,]3-[D,,D,F,]2 B,,|B,,2A,, G,,2C,|F,,3 A,,3|B,,3-B,,2 D,|C,3-C,2||

